X: 33033
T: Pride Of Erin, The
R: jig
M: 6/8
K: Edorian
|:^D|E2 E GFE|e^de BAG|FED dcd|BAF AFD|
E2 E GFE|e^de BAG|FED dcd|1 BAF E2:|2 BAF E3||
|:e2 f gfe|dBc dcd|edB BAF|EDB, DCD|
E2 E GFE|e^de BAG|FED dcd|1 BAF E3:|2 BAF E2||

